X: 1
T:Herbert Smiths' Four Hand Reel
T:(Miss out the 2/4 bar when playing for dancing)
S: Bryancreer:aol.com tradtunes 2004-1-29
M:4/4
L:1/4
K:G
|: gfed | cBAG | G/A/B/c/ dB | (3B/c/B/ A A3/4d/4 |
gfed | cBAG | G/A/B/c/ db | agag | [M:2/4][L:1/4] g2 :|
M:4/4
|: BB/B/BB | c/B/A/G/ B2 | BB/B/BB | A/G/F/E/ D2 |
BB/B/BB | c/B/A/G/ B2 | Bc/B/AB/A/ | G2G2 :|
